X: 1
T:Down with the French
R:Jig
O:England
M:6/8
A:Westmorland
N:P20 1/3
K:D
a2f a2f|dfd f3|g2f g2f|efd cBA|\
a2f a2f|dfd f3|egf edc|d3D3:|
|:e2e f2d|cdB A3|dAd fdf|a2f d3|\
e2e f2d|cdB A3|Bcd edc|d3 D3:|
